X:1
T:O ho! So geb der Mann ein Pfenning
T:O ho! So geb der Mann ein Pfenning
T:Ludwig Senfl  (c. 1486-1543)
C:Ludwig Senfl  (c. 1486-1543)
%%score [ 1 2 3 4 ]
L:1/8
Q:1/2=80
M:2/2
K:F
V:1 treble nm="Soprano"
V:2 treble-8 nm="Alto"
V:3 treble-8 nm="Tenor"
V:4 bass nm="Bass"
V:1
 G8- | G8 | d8 | z4 d4 | d8 | d4 d4- | d4 c4 | B8 | A8 | z4 c4 | B4 A4 | G4 F4 | G8 | z4 c4 | %14
w: O|_|ho!|So|geb|der Mann|_ ein|Pfen-|ning,|so|hab wir|a- ber|Wein,|so|
 B4 A4 | G4 F4 | G8 | z4 A4 | D4 G4- | G4 F4 | G4 F4- | F2 E2 F2 D2 | A8 | z8 | z4 c4- | %25
w: hab wir|a- ber|Wein.|O|ho! O|_ _|||ho!||So|
 c2 B2 c2 A2 | d4 G4 | G6 F2 | G2 E2 A4 | D8 | z4 G4 | E4 A4- | A4 D4- | D4 G4- | G4 E4 | F4 D4- | %36
w: _ _ _ _|geb der|Mann _|_ _ _||ein|Pfen- ning,|_ ein|_ Pfen-|* ning,|so hab|
 D4 G4- | G4 F4 | G8- | G4 A4 | B8 | F4 B4- | B2 A2 G4 | F4 G4 | d8 | z4 d4 | B4 G4 | c8 | F4 B4- | %49
w: _ _|* wir|a-|* ber|Wein,|so hab|_ _ wir|a- ber|Wein,|so|geb der|Mann|ein Pfen-|
 B2 A2 d4- | d4 c2 B2 | c8 | B8 | A8 | G8 | F8 | z4 G4 | A4 B4 | c4 G4 | c8 | B6 G2 | G8 | z4 G4 | %63
w: ||ning,|ein|Pfen-||ning,|so|hab wir|a- *||ber _|Wein,|a-|
 F4 D4 | A8 | z8 | z8 | D8 | A8 | G8 | A6 G2 | F4 E4 | D4 F4 | G4 A4 | B6 A2 | G4 F4 | G4 B4- | %77
w: * ber|Wein.|||O|ho!|So|geb _|_ der|Mann ein|Pfen- *||ning, so|hab _|
 B4 A4- | A4 G4- | G4 F4 | G8- | G8 |] %82
w: _ wir|_ a-|* ber|Wein.|_|
V:2
 c8 | g8 | z4 g4 | g8 | g4 g4- | g4 f4 | e8 | d8 | z4 f4- | f4 e4 | d4 f4 | e4 d4 | c4 B4 | c8 | %14
w: ~O|ho!|So|geb|der Mann|_ ein|Pfen-|ning,|so|_ hab|wir, so|hab wir|a- ber|Wein,|
 z4 f4 | e4 d4 | c4 B4 | c8 | d4 G4 | A8 | G4 B4 | A6 G2 | F2 E2 A4- | A4 G4 | A8 | c8 | B4 c4 | %27
w: so|hab wir|a- ber|Wein,|a- ber|Wein,|_ so|geb _|der _ Mann|_ ein|Pfen-|ning,|ein _|
 d6 c2 | B4 A4 | G8 | B8 | c4 A4 | d8 | G8 | c8 | A4 B4 | G8 | A8 | e8- | e8 | f6 e2 | %41
w: Pfen- *||ning,|_|so _|hab|_|wir|a- ber|Wein.|_|O|_|ho! _|
 d2 c2 B2 A2 | G2 F2 G4 | B6 AG | A2 G2 g4- | g4 f4 | g6 f2 | e2 d2 e4 | d4 G2 A2 | B2 c2 d2 e2 | %50
w: _ _ _ _|* * so|geb _ _|_ _ _|* der|Mann _|_ _ _|ein Pfen- *||
 f4 e2 d2 | e8 | d4 f4 | e8 | z4 d4 | d4 c4 | B4 G4 | d8 | e8- | e8 | d8- | d8- | d8- | d8 | %64
w: |||ning,|so|hab wir|a- *|ber|Wein.|_|||||
 z4 D4- | D2 E2 F2 G2 | A2 B2 c4 | d8 | c8 | z4 B4 | A4 c4 | d4 e4 | f2 e2 d2 c2 | B4 A4 | d6 c2 | %75
w: O|_ _ _ _|||ho!|So|geb der|Mann ein|Pfen- * * *|* ning,|so _|
 B4 A4 | G8 | F6 G2 | A2 F2 B4 | A8 | G8- | G8 |] %82
w: hab wir|a-|||ber|Wein.|_|
V:3
 z8 | z8 | z8 | z8 | z8 | z8 | z8 | z8 | z8 | z8 | z8 | z8 | z8 | z8 | z8 | z8 | z8 | z8 | z8 | %19
w: |||||||||||||||||||
 z8 | z8 | z8 | z8 | z8 | z8 | z8 | z8 | z8 | z8 | z8 | z8 | z8 | z8 | z8 | z8 | z8 | z8 | z8 | %38
w: |||||||||||||||||||
 G8- | G8 | d8- | d8 | z8 | d8 | d8 | d8 | d8 | c8 | B8- | B8 | A8- | A8 | z8 | c8 | B8- | B4 A4 | %56
w: O|_|ho!|_||So|geb|der|Mann|ein|Pfen-||ning,|_||so|hab|_ wir|
 G8 | F8 | G8- | G8- | G8- | G8 | z4 D4- | D4 A4- | A4 A4 | A4 A4 | A8 | G4 F4- | F4 E4- | E4 G4 | %70
w: a-|ber|Wein.|_|||O|_ ho!|_ So|geb der|Mann|ein Pfen-|* ning,|_ so|
 F6 E2 | D4 C4 | D8- | D8- | D8- | D8- | D8- | D8- | D8- | D8- | D8- | D8 |] %82
w: hab wir|a- ber|Wein.|_|||||||||
V:4
 z8 | z8 | z8 | z8 | z8 | z8 | z8 | z8 | z8 | z8 | z8 | z8 | z8 | z8 | z8 | z8 | z8 | z8 | G,,8 | %19
w: ||||||||||||||||||O|
 D,8 | z4 D,4 | D,4 D,4 | D,4 C,4 | B,,8 | A,,8- | A,,8 | z4 C,4 | B,,6 A,,2 | G,,4 F,,4 | %29
w: ho!|So|geb der|Mann ein|Pfen-|ning,|_|so|hab wir|a- *|
 G,,4 G,4- | G,2 F,2 G,2 E,2 | A,4 F,4- | F,2 E,2 F,2 D,2 | G,4 C,4- | C,2 B,,2 C,2 A,,2 | %35
w: ber Wein,|_ _ _ _|* Wein,|_ _ _ _|* Wein,|_ _ _ _|
 D,4 B,,4- | B,,2 A,,2 B,,2 G,,2 | C,4 F,,4 | C,8- | C,8 | B,,8- | B,,8 | z4 B,,4- | %43
w: Wein, _|_ _ _ _||Wein,|_|||so|
 B,,2 A,,2 G,,4 | F,,4 G,,4 | D,8 | G,,8 | A,,8 | B,,8 | G,,8 | A,,8- | A,,8 | B,,8 | C,8 | G,,8 | %55
w: _ _ hab|wir a-|ber|Wein,|_|Wein,|_|||Wein,|_||
 z4 A,,4 | B,,4 _E,4 | D,8 | C,8- | C,8 | G,,8- | G,,8 | G,,8 | D,8 | D,4 D,4 | D,4 D,4- | %66
w: so|hab _|wir|Wein.|_|||O|ho!|So geb|der Mann|
 D,4 C,4 | B,,8 | A,,8 | z8 | z8 | z4 C,4 | B,,6 A,,2 | G,,4 F,,4 | G,,6 A,,2 | B,,2 C,2 D,4 | %76
w: _ ein|Pfen-|ning,|||so|hab wir|a- ber|Wein, _|_ _ _|
 G,,8 | z8 | z4 G,,4 | D,8 | G,,8- | G,,8 |] %82
w: ||a-|ber|Wein.|_|

